X:1
T:Rule Britannia. ET.18
T:Rule Britannia. ET.18
T:Thomas Arne
C:Thomas Arne
L:1/8
Q:1/4=120
M:2/2
K:C
V:1 treble 
V:1
 G |"^sic" c2 c2 (c/d/e/f/g)c | d2 d d2{de} e2"^bar line added" | e/f/g/e/ ag f2 e2 z G2 | %4
w: When|Brit- ain fir- * st at heav- en's|com- mand * *|* * * * * * A- ro- *|
 c/d/c/d/gd ed"^bar line added" | cd/e/ dc B2 z G | dBg f/e/ d/c/ B/A/ | %7
w: se from out the a- * zure main.|A- rose a- * * * *|rose a- rose fr- om ou- t th- e|
 G2{FG} A2{GA} G2 z"^bar line added" | d2 edcd d2 z2 | c2 c>G AF z c"^bar line added" | %10
w: a- zure main||This was the Chart- er, the|
 fedc B2 z d | g2 f2 e/c/ f/d/gc | G2 d2{cd} c4 | e3 z eff z f | f>ed>c B4 | %15
w: Chart- er of the land. And|Guard- ian An- * gels sang this strain.|Rule Brit- ann-|ia, Brit- ann- ia rule|the waves. Brit- ons ne-|
 g2 f2"^qu. in ms" (e/c/f/d/g)f | e2 d2 c4 |] %17
w: * ver will be slaves. * * *||

